; generated by PrusaSlicer 2.3.1+arm64 on 2021-05-14 at 00:33:52 UTC

; 

; external perimeters extrusion width = 0.60mm
; perimeters extrusion width = 0.50mm
; infill extrusion width = 0.50mm
; solid infill extrusion width = 0.50mm
; top infill extrusion width = 0.45mm
; first layer extrusion width = 0.42mm

M73 P0 R37
M73 Q0 S37
M201 X1000 Y1000 Z200 E5000 ; sets maximum accelerations, mm/sec^2
M203 X200 Y200 Z12 E120 ; sets maximum feedrates, mm/sec
M204 P1250 R1250 T1250 ; sets acceleration (P, T) and retract acceleration (R), mm/sec^2
M205 X8.00 Y8.00 Z0.40 E4.50 ; sets the jerk limits, mm/sec
M205 S0 T0 ; sets the minimum extruding and travel feed rate, mm/sec
M107
;TYPE:Custom
M862.3 P "MK3S" ; printer model check
M862.1 P0.4 ; nozzle diameter check
M115 U3.9.3 ; tell printer latest fw version
G90 ; use absolute coordinates
M83 ; extruder relative mode
M104 S230 ; set extruder temp
M140 S85 ; set bed temp
M190 S85 ; wait for bed temp
M109 S230 ; wait for extruder temp
G28 W ; home all without mesh bed level
G80 ; mesh bed leveling
G1 Y-3.0 F1000.0 ; go outside print area
G92 E0.0
G1 X60.0 E9.0 F1000.0 ; intro line
G1 X100.0 E12.5 F1000.0 ; intro line
G92 E0.0
M221 S95

; Don't change E values below. Excessive value can damage the printer.

M907 E538 ; set extruder motor current
G21 ; set units to millimeters
G90 ; use absolute coordinates
M83 ; use relative distances for extrusion
M900 K0.08 ; Filament gcode LA 1.5
M900 K45 ; Filament gcode LA 1.0
;LAYER_CHANGE
;Z:0.2
;HEIGHT:0.2
;BEFORE_LAYER_CHANGE
G92 E0.0
;0.2


G1 E-1.40000 F2100.000
G1 Z0.200 F10800.000
;AFTER_LAYER_CHANGE
;0.2
G1 Z0.400
G1 X63.203 Y63.284
M73 P0 R36
G1 Z0.200
G1 E1.40000 F2100.000
M204 S1000
;TYPE:Skirt
;WIDTH:0.42
G1 F1200.000
G1 X64.133 Y63.162 E0.02939
G1 X127.876 Y63.162 E1.99863
G1 X128.708 Y63.255 E0.02622
G1 X129.397 Y63.483 E0.02277
G1 X130.445 Y64.153 E0.03898
G1 X130.979 Y64.746 E0.02504
G1 X131.362 Y65.408 E0.02397
G1 X131.621 Y66.198 E0.02609
G1 X131.693 Y66.703 E0.01597
G1 X131.693 Y113.308 E1.46129
G1 X131.472 Y114.328 E0.03272
G1 X131.057 Y115.140 E0.02859
G1 X130.431 Y115.860 E0.02990
G1 X129.717 Y116.365 E0.02741
G1 X128.812 Y116.721 E0.03050
G1 X127.888 Y116.838 E0.02920
G1 X64.149 Y116.838 E1.99850
M73 Q0 S36
G1 X63.543 Y116.787 E0.01905
G1 X62.677 Y116.543 E0.02821
G1 X61.921 Y116.122 E0.02715
G1 X60.375 Y114.974 E0.06036
G1 X58.915 Y113.746 E0.05980
G1 X57.456 Y112.359 E0.06314
G1 X56.085 Y110.878 E0.06326
G1 X54.834 Y109.344 E0.06207
G1 X53.678 Y107.732 E0.06219
G1 X52.616 Y106.035 E0.06278
G1 X51.685 Y104.318 E0.06123
G1 X50.879 Y102.589 E0.05980
G1 X50.127 Y100.676 E0.06445
G1 X49.522 Y98.795 E0.06195
G1 X49.052 Y96.947 E0.05980
G1 X48.667 Y94.928 E0.06445
G1 X48.422 Y92.967 E0.06195
G1 X48.302 Y91.064 E0.05980
G1 X48.299 Y89.008 E0.06445
G1 X48.422 Y87.036 E0.06195
G1 X48.657 Y85.143 E0.05980
G1 X49.037 Y83.115 E0.06469
G1 X49.522 Y81.208 E0.06171
G1 X50.104 Y79.392 E0.05980
G1 X50.849 Y77.480 E0.06434
G1 X51.683 Y75.685 E0.06207
G1 X52.592 Y74.008 E0.05980
G1 X53.685 Y72.258 E0.06469
G1 X54.832 Y70.658 E0.06171
G1 X56.036 Y69.179 E0.05980
G1 X57.435 Y67.662 E0.06469
G1 X58.858 Y66.303 E0.06171
G1 X60.325 Y65.066 E0.06016
G1 X62.143 Y63.735 E0.07065
G1 X63.148 Y63.308 E0.03425
; printing object elseifblock.stl id:0 copy 0
;WIPE_START
G1 F8640.000
G1 X64.133 Y63.162 E-0.22983
G1 X68.898 Y63.162 E-1.10017
;WIPE_END
G1 E-0.07000 F2100.000
G1 Z0.400 F10800.000
G1 X78.953 Y79.975
G1 Z0.200
G1 E1.40000 F2100.000
;TYPE:Perimeter
G1 F1200.000
G1 X79.890 Y79.156 E0.03902
G1 X80.897 Y78.425 E0.03902
G1 X81.965 Y77.786 E0.03902
G1 X83.087 Y77.246 E0.03902
G1 X84.252 Y76.809 E0.03902
G1 X85.452 Y76.478 E0.03902
G1 X86.676 Y76.256 E0.03902
G1 X87.916 Y76.144 E0.03902
G1 X89.160 Y76.144 E0.03902
G1 X90.400 Y76.256 E0.03902
G1 X91.624 Y76.478 E0.03902
G1 X92.824 Y76.809 E0.03902
G1 X93.989 Y77.246 E0.03902
G1 X95.110 Y77.786 E0.03902
G1 X96.179 Y78.425 E0.03902
G1 X97.186 Y79.156 E0.03902
G1 X98.123 Y79.975 E0.03902
G1 X98.983 Y80.874 E0.03902
G1 X99.759 Y81.847 E0.03902
G1 X100.445 Y82.886 E0.03902
G1 X101.034 Y83.982 E0.03902
G1 X101.523 Y85.126 E0.03902
G1 X101.908 Y86.310 E0.03902
G1 X102.185 Y87.523 E0.03902
G1 X102.352 Y88.757 E0.03902
G1 X102.408 Y90.000 E0.03902
M73 Q1 S36
G1 X102.352 Y91.243 E0.03902
G1 X102.185 Y92.477 E0.03902
G1 X101.908 Y93.690 E0.03902
M73 P1 R36
G1 X101.523 Y94.874 E0.03902
G1 X101.034 Y96.018 E0.03902
G1 X100.445 Y97.114 E0.03902
G1 X99.759 Y98.153 E0.03902
G1 X98.983 Y99.126 E0.03902
G1 X98.123 Y100.025 E0.03902
G1 X97.186 Y100.844 E0.03902
G1 X96.179 Y101.575 E0.03902
G1 X95.110 Y102.214 E0.03902
G1 X93.989 Y102.754 E0.03902
G1 X92.824 Y103.191 E0.03902
G1 X91.624 Y103.522 E0.03902
G1 X90.400 Y103.744 E0.03902
G1 X89.160 Y103.856 E0.03902
G1 X87.916 Y103.856 E0.03902
G1 X86.676 Y103.744 E0.03902
G1 X85.452 Y103.522 E0.03902
G1 X84.252 Y103.191 E0.03902
G1 X83.087 Y102.754 E0.03902
G1 X81.965 Y102.214 E0.03902
G1 X80.897 Y101.575 E0.03902
G1 X79.890 Y100.844 E0.03902
G1 X78.953 Y100.025 E0.03902
G1 X78.093 Y99.126 E0.03902
G1 X77.317 Y98.153 E0.03902
G1 X76.631 Y97.114 E0.03902
G1 X76.042 Y96.018 E0.03902
G1 X75.553 Y94.874 E0.03902
G1 X75.168 Y93.690 E0.03902
G1 X74.891 Y92.477 E0.03902
G1 X74.724 Y91.243 E0.03902
G1 X74.668 Y90.000 E0.03902
G1 X74.724 Y88.757 E0.03902
G1 X74.891 Y87.523 E0.03902
G1 X75.168 Y86.310 E0.03902
G1 X75.553 Y85.126 E0.03902
G1 X76.042 Y83.982 E0.03902
G1 X76.631 Y82.886 E0.03902
G1 X77.317 Y81.847 E0.03902
G1 X78.093 Y80.874 E0.03902
G1 X78.912 Y80.018 E0.03714
G1 X79.184 Y80.279 F10800.000
;TYPE:External perimeter
G1 F1200.000
G1 X80.126 Y79.451 E0.03930
G1 X81.105 Y78.740 E0.03796
G1 X82.144 Y78.119 E0.03796
G1 X83.235 Y77.593 E0.03796
G1 X84.369 Y77.168 E0.03796
G1 X85.536 Y76.846 E0.03796
G1 X86.727 Y76.630 E0.03796
G1 X87.933 Y76.521 E0.03796
G1 X89.143 Y76.521 E0.03796
G1 X90.349 Y76.630 E0.03796
G1 X91.540 Y76.846 E0.03796
G1 X92.707 Y77.168 E0.03796
G1 X93.841 Y77.593 E0.03796
G1 X94.932 Y78.119 E0.03796
G1 X95.971 Y78.740 E0.03796
G1 X96.950 Y79.451 E0.03796
G1 X97.862 Y80.248 E0.03796
G1 X98.699 Y81.123 E0.03796
G1 X99.454 Y82.069 E0.03796
G1 X100.121 Y83.080 E0.03796
G1 X100.694 Y84.146 E0.03796
G1 X101.170 Y85.259 E0.03796
G1 X101.544 Y86.411 E0.03796
G1 X101.814 Y87.591 E0.03796
G1 X101.976 Y88.791 E0.03796
G1 X102.030 Y90.000 E0.03796
G1 X101.976 Y91.209 E0.03796
G1 X101.814 Y92.409 E0.03796
G1 X101.544 Y93.589 E0.03796
G1 X101.170 Y94.741 E0.03796
G1 X100.694 Y95.854 E0.03796
G1 X100.121 Y96.920 E0.03796
G1 X99.454 Y97.931 E0.03796
G1 X98.699 Y98.877 E0.03796
G1 X97.862 Y99.752 E0.03796
G1 X96.950 Y100.549 E0.03796
G1 X95.971 Y101.260 E0.03796
G1 X94.932 Y101.881 E0.03796
G1 X93.841 Y102.407 E0.03796
G1 X92.707 Y102.832 E0.03796
G1 X91.540 Y103.154 E0.03796
G1 X90.349 Y103.370 E0.03796
G1 X89.143 Y103.479 E0.03796
G1 X87.933 Y103.479 E0.03796
G1 X86.727 Y103.370 E0.03796
G1 X85.536 Y103.154 E0.03796
G1 X84.369 Y102.832 E0.03796
G1 X83.235 Y102.407 E0.03796
G1 X82.144 Y101.881 E0.03796
G1 X81.105 Y101.260 E0.03796
G1 X80.126 Y100.549 E0.03796
G1 X79.214 Y99.752 E0.03796
G1 X78.377 Y98.877 E0.03796
G1 X77.622 Y97.931 E0.03796
G1 X76.955 Y96.920 E0.03796
G1 X76.382 Y95.854 E0.03796
G1 X75.906 Y94.741 E0.03796
G1 X75.532 Y93.589 E0.03796
G1 X75.262 Y92.409 E0.03796
G1 X75.100 Y91.209 E0.03796
G1 X75.046 Y90.000 E0.03796
G1 X75.100 Y88.791 E0.03796
G1 X75.262 Y87.591 E0.03796
G1 X75.532 Y86.411 E0.03796
G1 X75.906 Y85.259 E0.03796
G1 X76.382 Y84.146 E0.03796
G1 X76.955 Y83.080 E0.03796
G1 X77.622 Y82.069 E0.03796
G1 X78.377 Y81.123 E0.03796
G1 X79.143 Y80.322 E0.03473
G1 X79.088 Y79.890 F10800.000
;WIPE_START
G1 F8640.000
G1 X80.126 Y79.451 E-0.30326
G1 X81.105 Y78.740 E-0.27955
G1 X82.144 Y78.119 E-0.27955
G1 X83.235 Y77.593 E-0.27955
G1 X83.998 Y77.307 E-0.18810
;WIPE_END
G1 E-0.07000 F2100.000
G1 Z0.400 F10800.000
G1 X109.321 Y75.788
G1 Z0.200
G1 E1.40000 F2100.000
;TYPE:Perimeter
G1 F1200.000
G1 X109.248 Y75.000 E0.02482
G1 X109.321 Y74.212 E0.02482
G1 X109.537 Y73.450 E0.02482
G1 X109.890 Y72.741 E0.02482
G1 X110.367 Y72.110 E0.02482
G1 X110.660 Y71.843 E0.01241
G1 X110.952 Y71.576 E0.01241
G1 X111.626 Y71.159 E0.02482
G1 X112.364 Y70.873 E0.02482
G1 X113.142 Y70.728 E0.02482
G1 X113.934 Y70.728 E0.02482
G1 X114.712 Y70.873 E0.02482
G1 X115.450 Y71.159 E0.02482
G1 X116.124 Y71.576 E0.02482
G1 X116.709 Y72.110 E0.02482
G1 X117.186 Y72.741 E0.02482
G1 X117.539 Y73.450 E0.02482
G1 X117.755 Y74.212 E0.02482
G1 X117.828 Y75.000 E0.02482
G1 X117.755 Y75.788 E0.02482
G1 X117.539 Y76.550 E0.02482
G1 X117.186 Y77.259 E0.02482
G1 X116.709 Y77.890 E0.02482
G1 X116.124 Y78.424 E0.02482
G1 X115.450 Y78.841 E0.02482
G1 X114.712 Y79.127 E0.02482
G1 X113.934 Y79.272 E0.02482
G1 X113.142 Y79.272 E0.02482
G1 X112.364 Y79.127 E0.02482
G1 X111.626 Y78.841 E0.02482
G1 X110.952 Y78.424 E0.02482
G1 X110.367 Y77.890 E0.02482
G1 X109.890 Y77.259 E0.02482
G1 X109.537 Y76.550 E0.02482
G1 X109.337 Y75.846 E0.02294
G1 X109.700 Y75.743 F10800.000
;TYPE:External perimeter
G1 F1200.000
G1 X109.626 Y75.000 E0.02341
G1 X109.693 Y74.281 E0.02263
G1 X109.890 Y73.587 E0.02263
G1 X110.212 Y72.941 E0.02263
G1 X110.647 Y72.365 E0.02263
G1 X111.181 Y71.878 E0.02263
G1 X111.794 Y71.498 E0.02263
G1 X112.467 Y71.238 E0.02263
G1 X113.177 Y71.105 E0.02263
G1 X113.899 Y71.105 E0.02263
G1 X114.608 Y71.238 E0.02263
G1 X115.282 Y71.498 E0.02263
G1 X115.895 Y71.878 E0.02263
G1 X116.429 Y72.365 E0.02263
G1 X116.864 Y72.941 E0.02263
G1 X117.186 Y73.587 E0.02263
G1 X117.383 Y74.281 E0.02263
G1 X117.450 Y75.000 E0.02263
G1 X117.383 Y75.719 E0.02263
G1 X117.186 Y76.413 E0.02263
G1 X116.864 Y77.059 E0.02263
G1 X116.429 Y77.635 E0.02263
G1 X115.895 Y78.122 E0.02263
G1 X115.282 Y78.502 E0.02263
G1 X114.608 Y78.762 E0.02263
G1 X113.899 Y78.895 E0.02263
G1 X113.177 Y78.895 E0.02263
G1 X112.467 Y78.762 E0.02263
G1 X111.794 Y78.502 E0.02263
G1 X111.181 Y78.122 E0.02263
G1 X110.647 Y77.635 E0.02263
G1 X110.212 Y77.059 E0.02263
G1 X109.890 Y76.413 E0.02263
G1 X109.716 Y75.801 E0.01997
G1 X109.322 Y75.612 F10800.000
;WIPE_START
G1 F8640.000
G1 X109.626 Y75.000 E-0.18602
G1 X109.693 Y74.281 E-0.16668
G1 X109.890 Y73.587 E-0.16668
G1 X110.212 Y72.941 E-0.16668
G1 X110.647 Y72.365 E-0.16668
G1 X111.181 Y71.878 E-0.16668
G1 X111.794 Y71.498 E-0.16668
G1 X112.375 Y71.273 E-0.14390
;WIPE_END
G1 E-0.07000 F2100.000
G1 Z0.400 F10800.000
G1 X67.186 Y102.741
G1 Z0.200
G1 E1.40000 F2100.000
;TYPE:Perimeter
G1 F1200.000
G1 X67.539 Y103.450 E0.02482
G1 X67.755 Y104.212 E0.02482
G1 X67.828 Y105.000 E0.02482
G1 X67.755 Y105.788 E0.02482
G1 X67.539 Y106.550 E0.02482
G1 X67.186 Y107.259 E0.02482
G1 X66.709 Y107.890 E0.02482
G1 X66.124 Y108.424 E0.02482
G1 X65.450 Y108.841 E0.02482
G1 X64.712 Y109.127 E0.02482
G1 X63.934 Y109.272 E0.02482
G1 X63.142 Y109.272 E0.02482
G1 X62.364 Y109.127 E0.02482
G1 X61.626 Y108.841 E0.02482
G1 X60.952 Y108.424 E0.02482
G1 X60.367 Y107.890 E0.02482
G1 X59.890 Y107.259 E0.02482
G1 X59.537 Y106.550 E0.02482
G1 X59.321 Y105.788 E0.02482
G1 X59.248 Y105.000 E0.02482
G1 X59.321 Y104.212 E0.02482
G1 X59.537 Y103.450 E0.02482
G1 X59.890 Y102.741 E0.02482
G1 X60.367 Y102.110 E0.02482
G1 X60.952 Y101.576 E0.02482
G1 X61.626 Y101.159 E0.02482
G1 X62.364 Y100.873 E0.02482
G1 X63.142 Y100.728 E0.02482
G1 X63.934 Y100.728 E0.02482
G1 X64.712 Y100.873 E0.02482
G1 X65.450 Y101.159 E0.02482
G1 X66.124 Y101.576 E0.02482
G1 X66.709 Y102.110 E0.02482
G1 X67.150 Y102.693 E0.02294
G1 X66.849 Y102.921 F10800.000
;TYPE:External perimeter
G1 F1200.000
G1 X67.186 Y103.587 E0.02341
G1 X67.383 Y104.281 E0.02263
G1 X67.450 Y105.000 E0.02263
G1 X67.383 Y105.719 E0.02263
G1 X67.186 Y106.413 E0.02263
G1 X66.864 Y107.059 E0.02263
G1 X66.429 Y107.635 E0.02263
G1 X65.895 Y108.122 E0.02263
G1 X65.282 Y108.502 E0.02263
G1 X64.608 Y108.762 E0.02263
G1 X63.899 Y108.895 E0.02263
G1 X63.177 Y108.895 E0.02263
G1 X62.467 Y108.762 E0.02263
G1 X61.794 Y108.502 E0.02263
G1 X61.181 Y108.122 E0.02263
G1 X60.647 Y107.635 E0.02263
G1 X60.212 Y107.059 E0.02263
G1 X59.890 Y106.413 E0.02263
G1 X59.693 Y105.719 E0.02263
G1 X59.626 Y105.000 E0.02263
G1 X59.693 Y104.281 E0.02263
G1 X59.890 Y103.587 E0.02263
G1 X60.212 Y102.941 E0.02263
G1 X60.647 Y102.365 E0.02263
G1 X61.181 Y101.878 E0.02263
G1 X61.794 Y101.498 E0.02263
G1 X62.467 Y101.238 E0.02263
G1 X63.177 Y101.105 E0.02263
G1 X63.899 Y101.105 E0.02263
G1 X64.608 Y101.238 E0.02263
G1 X65.282 Y101.498 E0.02263
G1 X65.895 Y101.878 E0.02263
G1 X66.429 Y102.365 E0.02263
G1 X66.813 Y102.873 E0.01997
G1 X67.248 Y102.907 F10800.000
;WIPE_START
G1 F8640.000
G1 X67.186 Y103.587 E-0.18602
G1 X67.383 Y104.281 E-0.16668
G1 X67.450 Y105.000 E-0.16668
G1 X67.383 Y105.719 E-0.16668
G1 X67.186 Y106.413 E-0.16668
G1 X66.864 Y107.059 E-0.16668
G1 X66.429 Y107.635 E-0.16668
G1 X65.968 Y108.055 E-0.14390
;WIPE_END
G1 E-0.07000 F2100.000
G1 Z0.400 F10800.000
G1 X64.207 Y112.792
G1 Z0.200
G1 E1.40000 F2100.000
;TYPE:Perimeter
G1 F1200.000
G1 X62.878 Y111.806 E0.05187
G1 X61.556 Y110.693 E0.05420
G1 X60.306 Y109.499 E0.05420
G1 X59.132 Y108.230 E0.05420
G1 X58.040 Y106.890 E0.05420
G1 X57.033 Y105.485 E0.05420
G1 X56.115 Y104.020 E0.05420
G1 X55.290 Y102.501 E0.05420
G1 X54.561 Y100.934 E0.05420
G1 X53.931 Y99.324 E0.05420
G1 X53.403 Y97.679 E0.05420
G1 X52.977 Y96.003 E0.05420
G1 X52.656 Y94.305 E0.05420
G1 X52.442 Y92.589 E0.05420
G1 X52.334 Y90.864 E0.05420
G1 X52.334 Y89.136 E0.05420
G1 X52.442 Y87.411 E0.05420
G1 X52.656 Y85.695 E0.05420
G1 X52.977 Y83.997 E0.05420
G1 X53.403 Y82.321 E0.05420
G1 X53.931 Y80.676 E0.05420
G1 X54.561 Y79.066 E0.05420
G1 X55.290 Y77.499 E0.05420
G1 X56.115 Y75.980 E0.05420
G1 X57.033 Y74.515 E0.05420
G1 X58.040 Y73.110 E0.05420
G1 X59.132 Y71.770 E0.05420
G1 X60.306 Y70.501 E0.05420
G1 X61.556 Y69.307 E0.05420
G1 X62.877 Y68.195 E0.05414
G1 X64.236 Y67.200 E0.05283
G1 X127.383 Y67.206 E1.97993
G1 X126.398 Y68.227 E0.04449
G1 X125.148 Y69.673 E0.05993
G1 X123.985 Y71.192 E0.05997
G1 X122.915 Y72.777 E0.05997
G1 X121.940 Y74.422 E0.05997
G1 X121.065 Y76.123 E0.05997
G1 X120.292 Y77.873 E0.05997
G1 X119.625 Y79.665 E0.05997
G1 X119.065 Y81.494 E0.05997
G1 X118.615 Y83.353 E0.05997
G1 X118.276 Y85.235 E0.05997
G1 X118.049 Y87.134 E0.05997
G1 X117.935 Y89.044 E0.05997
G1 X117.935 Y90.956 E0.05997
G1 X118.049 Y92.866 E0.05997
G1 X118.276 Y94.765 E0.05997
G1 X118.615 Y96.647 E0.05997
G1 X119.065 Y98.506 E0.05997
G1 X119.481 Y99.866 E0.04461
G1 X119.625 Y100.335 E0.01536
G1 X120.292 Y102.127 E0.05997
M73 Q2 S36
G1 X121.065 Y103.877 E0.05997
G1 X121.940 Y105.578 E0.05997
G1 X122.915 Y107.223 E0.05997
M73 P2 R36
G1 X123.985 Y108.808 E0.05997
G1 X125.148 Y110.327 E0.05997
G1 X126.398 Y111.773 E0.05993
G1 X127.390 Y112.800 E0.04478
G1 X64.267 Y112.792 E1.97917
G1 X64.118 Y113.169 F10800.000
;TYPE:External perimeter
G1 F1200.000
G1 X64.031 Y113.131 E0.00297
G1 X62.644 Y112.102 E0.05416
G1 X61.304 Y110.973 E0.05493
G1 X60.037 Y109.763 E0.05493
G1 X58.848 Y108.477 E0.05493
G1 X57.740 Y107.119 E0.05493
G1 X56.720 Y105.695 E0.05493
G1 X55.790 Y104.210 E0.05493
G1 X54.953 Y102.671 E0.05493
G1 X54.215 Y101.082 E0.05493
G1 X53.576 Y99.451 E0.05493
G1 X53.040 Y97.783 E0.05493
G1 X52.609 Y96.085 E0.05493
G1 X52.284 Y94.363 E0.05493
G1 X52.066 Y92.625 E0.05493
G1 X51.957 Y90.876 E0.05493
G1 X51.957 Y89.124 E0.05493
G1 X52.066 Y87.375 E0.05493
G1 X52.284 Y85.637 E0.05493
G1 X52.609 Y83.915 E0.05493
G1 X53.040 Y82.217 E0.05493
G1 X53.576 Y80.549 E0.05493
G1 X54.215 Y78.918 E0.05493
G1 X54.953 Y77.329 E0.05493
G1 X55.790 Y75.790 E0.05493
G1 X56.720 Y74.305 E0.05493
G1 X57.740 Y72.881 E0.05493
G1 X58.848 Y71.523 E0.05493
G1 X60.037 Y70.237 E0.05493
G1 X61.304 Y69.027 E0.05493
G1 X62.643 Y67.898 E0.05491
G1 X64.087 Y66.842 E0.05609
G1 X64.183 Y66.822 E0.00308
G1 X127.888 Y66.829 E1.99743
G1 X127.976 Y66.861 E0.00292
G1 X128.030 Y66.936 E0.00291
G1 X128.042 Y67.015 E0.00251
G1 X128.015 Y67.095 E0.00263
G1 X126.677 Y68.482 E0.06044
G1 X125.441 Y69.911 E0.05925
G1 X124.291 Y71.412 E0.05927
G1 X123.233 Y72.979 E0.05927
G1 X122.270 Y74.605 E0.05927
G1 X121.405 Y76.286 E0.05927
