; generated by PrusaSlicer 2.3.1+arm64 on 2021-06-12 at 01:03:39 UTC

; 

; external perimeters extrusion width = 0.45mm
; perimeters extrusion width = 0.45mm
; infill extrusion width = 0.45mm
; solid infill extrusion width = 0.45mm
; top infill extrusion width = 0.40mm
; first layer extrusion width = 0.42mm

M73 P0 R9
M73 Q0 S9
M201 X1000 Y1000 Z200 E5000 ; sets maximum accelerations, mm/sec^2
M203 X200 Y200 Z12 E120 ; sets maximum feedrates, mm/sec
M204 P1250 R1250 T1250 ; sets acceleration (P, T) and retract acceleration (R), mm/sec^2
M205 X8.00 Y8.00 Z0.40 E4.50 ; sets the jerk limits, mm/sec
M205 S0 T0 ; sets the minimum extruding and travel feed rate, mm/sec
M107
;TYPE:Custom
M862.3 P "MK3S" ; printer model check
M862.1 P0.4 ; nozzle diameter check
M115 U3.10.0 ; tell printer latest fw version
G90 ; use absolute coordinates
M83 ; extruder relative mode
M104 S290 ; set extruder temp
M140 S90 ; set bed temp
M190 S90 ; wait for bed temp
M109 S290 ; wait for extruder temp
G28 W ; home all without mesh bed level
G80 ; mesh bed leveling
G1 Y-3.0 F1000.0 ; go outside print area
G92 E0.0
G1 X60.0 E9.0 F1000.0 ; intro line
G1 X100.0 E12.5 F1000.0 ; intro line
G92 E0.0
M221 S95

; Don't change E values below. Excessive value can damage the printer.
M907 E430 ; set extruder motor current
G21 ; set units to millimeters
G90 ; use absolute coordinates
M83 ; use relative distances for extrusion
M900 K0.08 ; Filament gcode LA 1.5
M900 K45 ; Filament gcode LA 1.0
;LAYER_CHANGE
;Z:0.2
;HEIGHT:0.2
;BEFORE_LAYER_CHANGE
G92 E0.0
;0.2


M73 P1 R9
M73 Q1 S9
G1 E-1.00000 F2100.000
G1 Z0.200 F10800.000
;AFTER_LAYER_CHANGE
;0.2
G1 Z0.400
G1 X118.204 Y98.388
G1 Z0.200
G1 E1.00000 F2100.000
M204 S1000
;TYPE:Skirt
;WIDTH:0.42
G1 F1200.000
G1 X118.991 Y97.665 E0.03351
G1 X119.852 Y97.038 E0.03337
G1 X121.403 Y96.228 E0.05487
G1 X123.127 Y95.705 E0.05651
G1 X124.907 Y95.520 E0.05610
G1 X126.668 Y95.668 E0.05542
G1 X127.708 Y95.914 E0.03351
G1 X128.713 Y96.278 E0.03351
G1 X130.301 Y97.140 E0.05664
G1 X131.658 Y98.251 E0.05501
G1 X132.817 Y99.638 E0.05665
G1 X133.371 Y100.551 E0.03351
G1 X133.816 Y101.518 E0.03337
G1 X134.318 Y103.258 E0.05678
G1 X134.480 Y105.001 E0.05487
G1 X134.318 Y106.743 E0.05487
G1 X133.816 Y108.482 E0.05674
G1 X133.373 Y109.446 E0.03328
G1 X132.816 Y110.363 E0.03365
G1 X131.657 Y111.750 E0.05665
G1 X130.300 Y112.861 E0.05501
G1 X128.712 Y113.723 E0.05664
G1 X127.707 Y114.086 E0.03351
G1 X126.671 Y114.332 E0.03337
G1 X124.901 Y114.480 E0.05569
G1 X123.126 Y114.295 E0.05596
G1 X121.393 Y113.768 E0.05678
G1 X120.425 Y113.305 E0.03365
G1 X119.520 Y112.737 E0.03351
G1 X118.157 Y111.564 E0.05637
G1 X117.060 Y110.184 E0.05528
G1 X116.225 Y108.592 E0.05637
G1 X115.714 Y106.918 E0.05487
G1 X115.557 Y105.866 E0.03337
G1 X115.520 Y104.806 E0.03323
G1 X115.729 Y103.007 E0.05678
G1 X116.251 Y101.342 E0.05474
G1 X117.073 Y99.796 E0.05487
G1 X118.167 Y98.435 E0.05476
G1 X118.459 Y98.669 F10800.000
G1 F1200.000
G1 X119.228 Y97.958 E0.03284
G1 X120.063 Y97.351 E0.03237
G1 X121.552 Y96.574 E0.05268
M73 Q2 S9
G1 X123.203 Y96.075 E0.05409
G1 X124.907 Y95.897 E0.05370
G1 X126.597 Y96.038 E0.05319
G1 X127.602 Y96.276 E0.03237
M73 P2 R9
G1 X128.572 Y96.627 E0.03237
G1 X130.091 Y97.454 E0.05421
G1 X131.391 Y98.518 E0.05268
G1 X132.501 Y99.844 E0.05421
G1 X133.039 Y100.730 E0.03249
G1 X133.468 Y101.664 E0.03224
G1 X133.948 Y103.329 E0.05434
G1 X134.103 Y105.002 E0.05268
G1 X133.948 Y106.671 E0.05255
G1 X133.468 Y108.336 E0.05434
G1 X133.039 Y109.271 E0.03224
G1 X132.501 Y110.156 E0.03249
G1 X131.391 Y111.482 E0.05421
G1 X130.091 Y112.547 E0.05268
G1 X128.572 Y113.373 E0.05421
G1 X127.602 Y113.724 E0.03237
G1 X126.597 Y113.962 E0.03237
G1 X124.903 Y114.103 E0.05332
G1 X123.199 Y113.925 E0.05370
G1 X121.541 Y113.421 E0.05434
G1 X120.609 Y112.976 E0.03237
G1 X119.732 Y112.425 E0.03249
G1 X118.428 Y111.302 E0.05396
G1 X117.377 Y109.980 E0.05293
G1 X116.575 Y108.453 E0.05408
G1 X116.085 Y106.851 E0.05255
G1 X115.933 Y105.834 E0.03224
G1 X115.897 Y104.806 E0.03224
G1 X116.098 Y103.085 E0.05434
G1 X116.600 Y101.486 E0.05255
G1 X117.386 Y100.006 E0.05255
G1 X118.422 Y98.716 E0.05185
G1 X118.714 Y98.951 F10800.000
G1 F1200.000
G1 X119.468 Y98.249 E0.03231
G1 X120.271 Y97.665 E0.03110
G1 X121.698 Y96.922 E0.05048
G1 X123.276 Y96.445 E0.05167
G1 X124.907 Y96.274 E0.05143
G1 X126.523 Y96.408 E0.05084
G1 X127.492 Y96.637 E0.03122
G1 X128.432 Y96.977 E0.03134
G1 X129.882 Y97.767 E0.05179
G1 X131.125 Y98.785 E0.05036
G1 X132.188 Y100.054 E0.05191
G1 X132.707 Y100.908 E0.03134
G1 X133.121 Y101.809 E0.03110
G1 X133.578 Y103.400 E0.05191
G1 X133.726 Y105.000 E0.05036
G1 X133.578 Y106.599 E0.05036
G1 X133.121 Y108.191 E0.05191
G1 X132.707 Y109.092 E0.03109
G1 X132.188 Y109.946 E0.03134
G1 X131.125 Y111.215 E0.05191
G1 X129.879 Y112.235 E0.05048
G1 X128.428 Y113.024 E0.05179
G1 X127.492 Y113.363 E0.03122
G1 X126.523 Y113.592 E0.03122
G1 X124.900 Y113.726 E0.05107
G1 X123.276 Y113.555 E0.05119
G1 X121.692 Y113.076 E0.05191
G1 X120.790 Y112.645 E0.03134
G1 X119.944 Y112.113 E0.03134
G1 X118.699 Y111.039 E0.05155
G1 X117.692 Y109.773 E0.05072
G1 X116.926 Y108.314 E0.05167
G1 X116.455 Y106.778 E0.05036
G1 X116.308 Y105.798 E0.03109
G1 X116.274 Y104.806 E0.03110
G1 X116.467 Y103.162 E0.05191
G1 X116.948 Y101.630 E0.05036
G1 X117.703 Y100.211 E0.05036
M73 Q3 S9
G1 X118.676 Y98.997 E0.04880
; printing object magnet_casing.stl id:0 copy 0
;WIPE_START
G1 F8640.000
G1 X119.468 Y98.249 E-0.25169
G1 X120.271 Y97.665 E-0.22901
G1 X121.698 Y96.922 E-0.37174
G1 X122.103 Y96.799 E-0.09757
;WIPE_END
G1 E-0.05000 F2100.000
G1 Z0.400 F10800.000
G1 X121.219 Y100.920
M73 P3 R9
G1 Z0.200
G1 E1.00000 F2100.000
;TYPE:Perimeter
G1 F1200.000
G1 X121.750 Y100.485 E0.02154
G1 X122.024 Y100.300 E0.01036
G1 X122.309 Y100.131 E0.01038
G1 X122.937 Y99.834 E0.02180
G1 X123.240 Y99.723 E0.01010
G1 X123.903 Y99.547 E0.02152
G1 X124.584 Y99.453 E0.02154
G1 X124.906 Y99.439 E0.01010
G1 X125.591 Y99.470 E0.02152
G1 X126.269 Y99.585 E0.02154
G1 X126.579 Y99.667 E0.01008
G1 X127.233 Y99.906 E0.02183
G1 X127.523 Y100.044 E0.01008
G1 X128.115 Y100.393 E0.02154
G1 X128.659 Y100.812 E0.02154
G1 X128.895 Y101.031 E0.01008
G1 X129.360 Y101.548 E0.02183
G1 X129.558 Y101.813 E0.01036
G1 X129.739 Y102.090 E0.01036
G1 X130.065 Y102.704 E0.02182
G1 X130.189 Y103.002 E0.01010
G1 X130.396 Y103.656 E0.02152
G1 X130.519 Y104.323 E0.02126
G1 X130.560 Y105.000 E0.02126
G1 X130.518 Y105.686 E0.02154
G1 X130.468 Y106.012 E0.01036
G1 X130.398 Y106.335 E0.01036
G1 X130.192 Y106.991 E0.02154
G1 X129.907 Y107.616 E0.02154
G1 X129.748 Y107.895 E0.01008
G1 X129.354 Y108.458 E0.02154
G1 X128.901 Y108.963 E0.02126
G1 X128.390 Y109.408 E0.02126
G1 X127.828 Y109.788 E0.02126
G1 X127.216 Y110.101 E0.02154
G1 X126.918 Y110.221 E0.01008
G1 X126.251 Y110.419 E0.02183
G1 X125.927 Y110.484 E0.01036
G1 X125.600 Y110.530 E0.01036
G1 X124.914 Y110.561 E0.02154
G1 X124.238 Y110.509 E0.02126
G1 X123.564 Y110.374 E0.02154
G1 X123.256 Y110.282 E0.01008
G1 X122.618 Y110.027 E0.02154
G1 X122.016 Y109.695 E0.02154
G1 X121.750 Y109.515 E0.01008
G1 X121.212 Y109.074 E0.02183
G1 X120.983 Y108.849 E0.01008
G1 X120.533 Y108.317 E0.02182
G1 X120.349 Y108.053 E0.01010
G1 X120.009 Y107.457 E0.02152
G1 X119.743 Y106.823 E0.02154
G1 X119.647 Y106.516 E0.01008
G1 X119.499 Y105.836 E0.02183
G1 X119.460 Y105.517 E0.01008
G1 X119.439 Y104.821 E0.02183
G1 X119.459 Y104.501 E0.01008
G1 X119.563 Y103.822 E0.02154
G1 X119.749 Y103.160 E0.02154
G1 X119.865 Y102.859 E0.01010
G1 X120.168 Y102.244 E0.02152
G1 X120.544 Y101.669 E0.02154
G1 X120.744 Y101.417 E0.01008
G1 X121.177 Y100.964 E0.01966
G1 X120.904 Y100.703 F10800.000
;TYPE:External perimeter
G1 F1200.000
G1 X121.525 Y100.182 E0.02539
G1 X121.822 Y99.981 E0.01126
G1 X122.132 Y99.798 E0.01129
G1 X122.791 Y99.486 E0.02288
G1 X123.126 Y99.363 E0.01119
G1 X123.829 Y99.177 E0.02278
G1 X124.549 Y99.077 E0.02281
G1 X124.906 Y99.061 E0.01119
G1 X125.631 Y99.094 E0.02278
G1 X126.349 Y99.216 E0.02281
G1 X126.693 Y99.307 E0.01116
G1 X127.379 Y99.558 E0.02291
G1 X127.700 Y99.710 E0.01116
G1 X128.327 Y100.080 E0.02281
G1 X128.903 Y100.524 E0.02281
G1 X129.164 Y100.766 E0.01116
G1 X129.652 Y101.309 E0.02291
G1 X129.867 Y101.597 E0.01126
G1 X130.064 Y101.898 E0.01126
G1 X130.406 Y102.543 E0.02291
G1 X130.544 Y102.872 E0.01119
G1 X130.762 Y103.565 E0.02278
G1 X130.894 Y104.277 E0.02271
G1 X130.938 Y105.000 E0.02271
G1 X130.894 Y105.726 E0.02281
G1 X130.839 Y106.081 E0.01126
G1 X130.763 Y106.432 E0.01126
G1 X130.545 Y107.126 E0.02281
G1 X130.243 Y107.788 E0.02281
G1 X130.067 Y108.097 E0.01116
G1 X129.650 Y108.693 E0.02281
G1 X129.166 Y109.232 E0.02271
G1 X128.620 Y109.708 E0.02271
G1 X128.020 Y110.113 E0.02271
G1 X127.373 Y110.445 E0.02281
G1 X127.042 Y110.577 E0.01116
G1 X126.342 Y110.786 E0.02291
G1 X125.990 Y110.856 E0.01126
G1 X125.635 Y110.906 E0.01126
G1 X124.908 Y110.939 E0.02281
G1 X124.186 Y110.884 E0.02271
G1 X123.473 Y110.740 E0.02281
G1 X123.132 Y110.639 E0.01116
G1 X122.456 Y110.368 E0.02281
G1 X121.819 Y110.017 E0.02281
G1 X121.525 Y109.818 E0.01116
G1 X120.959 Y109.355 E0.02291
G1 X120.706 Y109.105 E0.01116
G1 X120.234 Y108.547 E0.02291
G1 X120.030 Y108.255 E0.01119
G1 X119.670 Y107.624 E0.02278
G1 X119.389 Y106.953 E0.02281
G1 X119.282 Y106.613 E0.01116
G1 X119.127 Y105.899 E0.02291
G1 X119.084 Y105.546 E0.01116
G1 X119.062 Y104.816 E0.02291
G1 X119.083 Y104.460 E0.01116
G1 X119.194 Y103.741 E0.02281
G1 X119.391 Y103.041 E0.02281
G1 X119.519 Y102.708 E0.01119
G1 X119.840 Y102.056 E0.02278
G1 X120.238 Y101.448 E0.02281
G1 X120.459 Y101.169 E0.01116
G1 X120.863 Y100.747 E0.01832
G1 X121.286 Y100.822 F10800.000
;WIPE_START
G1 F8640.000
G1 X121.525 Y100.182 E-0.20078
G1 X121.822 Y99.981 E-0.08291
G1 X122.132 Y99.798 E-0.08312
G1 X122.791 Y99.486 E-0.16849
G1 X123.126 Y99.363 E-0.08238
G1 X123.829 Y99.177 E-0.16776
G1 X124.535 Y99.079 E-0.16457
;WIPE_END
G1 E-0.05000 F2100.000
G1 Z0.400 F10800.000
G1 X129.685 Y102.231
G1 Z0.200
G1 E1.00000 F2100.000
;TYPE:Solid infill
;WIDTH:0.433435
G1 F1200.000
G1 X128.477 Y101.029 E0.05535
G1 X127.956 Y100.628 E0.02133
G1 X127.391 Y100.294 E0.02133
G1 X127.039 Y100.136 E0.01251
G1 X129.867 Y102.965 E0.12989
G1 X130.131 Y103.781 E0.02783
G1 X126.213 Y99.862 E0.17993
M73 Q4 S9
G1 X125.549 Y99.751 E0.02185
G1 X130.243 Y104.445 E0.21555
M73 P4 R9
G1 X130.275 Y105.029 E0.01900
G1 X124.970 Y99.725 E0.24361
G1 X124.451 Y99.757 E0.01691
G1 X130.243 Y105.550 E0.26602
G1 X130.168 Y106.027 E0.01567
G1 X123.965 Y99.824 E0.28483
G1 X123.528 Y99.939 E0.01468
G1 X130.059 Y106.470 E0.29992
M73 P4 R8
G1 X129.927 Y106.890 E0.01430
G1 X123.109 Y100.072 E0.31310
G1 X122.729 Y100.245 E0.01354
G1 X129.754 Y107.270 E0.32259
M73 Q4 S8
G1 X129.569 Y107.637 E0.01336
G1 X122.361 Y100.429 E0.33102
G1 X122.022 Y100.642 E0.01300
G1 X129.350 Y107.970 E0.33652
G1 X129.122 Y108.294 E0.01287
G1 X121.710 Y100.883 E0.34034
G1 X121.411 Y101.128 E0.01256
G1 X128.860 Y108.585 E0.34226
M73 Q5 S8
G1 X128.586 Y108.863 E0.01268
G1 X121.137 Y101.414 E0.34203
M73 P5 R8
G1 X120.876 Y101.705 E0.01270
G1 X128.290 Y109.120 E0.34048
G1 X127.970 Y109.351 E0.01285
G1 X120.647 Y102.028 E0.33627
G1 X120.428 Y102.362 E0.01295
G1 X127.635 Y109.569 E0.33096
G1 X127.270 Y109.756 E0.01333
G1 X120.244 Y102.730 E0.32265
G1 X120.071 Y103.110 E0.01355
G1 X126.889 Y109.927 E0.31308
G1 X126.469 Y110.059 E0.01431
G1 X119.939 Y103.530 E0.29986
G1 X119.826 Y103.969 E0.01474
G1 X126.028 Y110.170 E0.28476
G1 X125.554 Y110.249 E0.01560
G1 X119.753 Y104.448 E0.26637
G1 X119.727 Y104.974 E0.01710
G1 X125.025 Y110.273 E0.24333
G1 X124.442 Y110.241 E0.01898
G1 X119.749 Y105.549 E0.21549
M73 Q6 S8
G1 X119.779 Y105.789 E0.00785
G1 X119.873 Y106.225 E0.01450
G1 X123.776 Y110.128 E0.17924
M73 P6 R8
G1 X123.349 Y110.015 E0.01435
G1 X122.951 Y109.855 E0.01392
G1 X120.145 Y107.049 E0.12888
G1 X120.263 Y107.332 E0.00995
G1 X120.588 Y107.901 E0.02130
G1 X120.758 Y108.144 E0.00962
G1 X121.139 Y108.596 E0.01919
G1 X122.224 Y109.680 E0.04981
; stop printing object magnet_casing.stl id:0 copy 0
;LAYER_CHANGE
;Z:0.35
;HEIGHT:0.15
;BEFORE_LAYER_CHANGE
G92 E0.0
;0.35


;WIPE_START
G1 F8640.000
G1 X121.139 Y108.596 E-0.35418
G1 X120.758 Y108.144 E-0.13647
G1 X120.588 Y107.901 E-0.06842
G1 X120.263 Y107.332 E-0.15149
G1 X120.145 Y107.049 E-0.07077
G1 X120.661 Y107.565 E-0.16867
;WIPE_END
G1 E-0.05000 F2100.000
G1 Z0.400 F10800.000
;AFTER_LAYER_CHANGE
;0.35
G1 X117.060 Y110.184
G1 Z0.350
G1 E1.00000 F2100.000
;TYPE:Skirt
;WIDTH:0.42
G1 F2068
G1 X116.225 Y108.592 E0.04348
G1 X115.714 Y106.918 E0.04232
G1 X115.557 Y105.866 E0.02574
G1 X115.520 Y104.806 E0.02564
G1 X115.729 Y103.007 E0.04380
G1 X116.251 Y101.342 E0.04222
G1 X117.073 Y99.796 E0.04233
G1 X118.204 Y98.388 E0.04369
G1 X118.991 Y97.665 E0.02585
G1 X119.852 Y97.038 E0.02574
G1 X121.403 Y96.228 E0.04232
G1 X123.127 Y95.705 E0.04359
G1 X124.907 Y95.520 E0.04327
G1 X126.668 Y95.668 E0.04274
G1 X127.708 Y95.914 E0.02585
G1 X128.713 Y96.278 E0.02585
G1 X130.301 Y97.140 E0.04369
G1 X131.658 Y98.251 E0.04243
G1 X132.817 Y99.638 E0.04369
G1 X133.371 Y100.551 E0.02585
G1 X133.816 Y101.518 E0.02574
G1 X134.318 Y103.258 E0.04380
G1 X134.480 Y105.001 E0.04233
G1 X134.318 Y106.743 E0.04233
G1 X133.816 Y108.482 E0.04377
G1 X133.373 Y109.446 E0.02567
G1 X132.816 Y110.363 E0.02595
G1 X131.657 Y111.750 E0.04369
G1 X130.300 Y112.861 E0.04243
G1 X128.712 Y113.723 E0.04369
G1 X127.707 Y114.086 E0.02585
G1 X126.671 Y114.332 E0.02574
G1 X124.901 Y114.480 E0.04296
G1 X123.126 Y114.295 E0.04317
G1 X121.393 Y113.768 E0.04380
G1 X120.425 Y113.305 E0.02595
G1 X119.520 Y112.737 E0.02585
G1 X118.157 Y111.564 E0.04348
G1 X117.098 Y110.231 E0.04119
G1 X117.391 Y109.998 F10800.000
G1 F2068
G1 X116.575 Y108.453 E0.04224
G1 X116.085 Y106.851 E0.04053
G1 X115.933 Y105.834 E0.02487
G1 X115.897 Y104.806 E0.02487
G1 X116.098 Y103.085 E0.04191
G1 X116.600 Y101.486 E0.04053
G1 X117.386 Y100.006 E0.04053
G1 X118.471 Y98.654 E0.04191
G1 X119.228 Y97.958 E0.02487
G1 X120.063 Y97.351 E0.02496
G1 X121.552 Y96.574 E0.04063
G1 X123.203 Y96.075 E0.04172
G1 X124.907 Y95.897 E0.04142
G1 X126.597 Y96.038 E0.04103
G1 X127.602 Y96.276 E0.02496
G1 X128.572 Y96.627 E0.02496
G1 X130.091 Y97.454 E0.04182
G1 X131.391 Y98.518 E0.04063
G1 X132.501 Y99.844 E0.04182
G1 X133.039 Y100.730 E0.02506
G1 X133.468 Y101.664 E0.02487
G1 X133.948 Y103.329 E0.04191
G1 X134.103 Y105.002 E0.04063
G1 X133.948 Y106.671 E0.04053
G1 X133.468 Y108.336 E0.04191
G1 X133.039 Y109.271 E0.02487
G1 X132.501 Y110.156 E0.02506
G1 X131.391 Y111.482 E0.04182
G1 X130.091 Y112.547 E0.04063
G1 X128.572 Y113.373 E0.04182
G1 X127.602 Y113.724 E0.02496
G1 X126.597 Y113.962 E0.02496
G1 X124.903 Y114.103 E0.04112
G1 X123.199 Y113.925 E0.04142
G1 X121.541 Y113.421 E0.04192
G1 X120.609 Y112.976 E0.02496
G1 X119.732 Y112.425 E0.02506
G1 X118.428 Y111.302 E0.04162
G1 X117.429 Y110.045 E0.03885
G1 X117.723 Y109.811 F10800.000
G1 F2068
G1 X116.926 Y108.314 E0.04101
G1 X116.455 Y106.778 E0.03885
G1 X116.308 Y105.798 E0.02398
G1 X116.274 Y104.806 E0.02399
G1 X116.467 Y103.162 E0.04004
G1 X116.948 Y101.630 E0.03885
G1 X117.703 Y100.211 E0.03885
G1 X118.736 Y98.923 E0.03995
G1 X119.468 Y98.249 E0.02408
G1 X120.271 Y97.665 E0.02399
G1 X121.698 Y96.922 E0.03894
G1 X123.276 Y96.445 E0.03985
G1 X124.907 Y96.274 E0.03967
M73 Q7 S8
G1 X126.523 Y96.408 E0.03921
G1 X127.492 Y96.637 E0.02408
G1 X128.432 Y96.977 E0.02417
G1 X129.882 Y97.767 E0.03995
G1 X131.125 Y98.785 E0.03885
G1 X132.188 Y100.054 E0.04004
G1 X132.707 Y100.908 E0.02417
M73 P7 R8
G1 X133.121 Y101.809 E0.02399
G1 X133.578 Y103.400 E0.04004
G1 X133.726 Y105.000 E0.03885
G1 X133.578 Y106.599 E0.03885
G1 X133.121 Y108.191 E0.04004
G1 X132.707 Y109.092 E0.02398
G1 X132.188 Y109.946 E0.02417
G1 X131.125 Y111.215 E0.04004
G1 X129.879 Y112.235 E0.03894
G1 X128.428 Y113.024 E0.03995
G1 X127.492 Y113.363 E0.02408
G1 X126.523 Y113.592 E0.02408
G1 X124.900 Y113.726 E0.03940
G1 X123.276 Y113.555 E0.03949
G1 X121.692 Y113.076 E0.04004
G1 X120.790 Y112.645 E0.02417
G1 X119.944 Y112.113 E0.02417
G1 X118.699 Y111.039 E0.03976
